X:1
T:Jahreszeiten
T:Behüt' dich Gott
T:Josef Rheinberger
T:Albert Wittstock
T:Behüt' dich Gott
T:No. 7 aus Jahreszeiten, Op. 186
T:CPDL - Creative Commons Attribution Non Commercial 3.0
T:CPDL - Creative Commons Attribution Non Commercial 3.0
C:Josef Rheinberger
Z:Albert Wittstock
Z:CPDL - Creative Commons Attribution Non Commercial 3.0
%%score [ ( 1 2 ) ( 3 4 ) ]
L:1/8
Q:1/4=80
M:3/4
K:C
V:1 treble nm="Sopran\nAlt"
V:2 treble 
V:3 bass nm="Tenor\nBass"
V:4 bass 
V:1
"^Adagio""^(Original in Des-dur)" z6 | z4!p!"^dolce" cG | F>E D2 dG | G>A G2!<(! Gc!<)! | %4
w: |1. Wie _|klingst du schön, wie _|klingst du schön, o _|
w: |2. Durch _|Wald und Hain, durch _|Wald und Hain, ruft's _|
w: |3. Nimm's _|zum Ge- leit, nimm's _|zum Ge- leit, das _|
!f! e>e f2 cd | !fermata!e4 z!pp! E | E>E E2 z E | E>E G^F z F |"^cresc." A>B c2 c2 | %9
w: al- tes trau- tes _|Wort! Wie|Frie- dens- gruß aus|Him- mels- höhn, _ wie|Frie- dens- gruß aus|
w: je- der Blü- ten- *|strauch, im|Ster- nen- glanz, im|Son- nen- schein, _ im|Ster- nen- glanz, im|
w: ist ge- sagt ge- *|nug; be-|hüt' dich Gott für|al- le Zeit, _ be-|hüt' dich Gott für|
 (3cBc (d2 G2) |!f! c2 dc B>d |!>(! c4-!>)! c z |!pp! E2 DC B,>D | !fermata!C4 z2 |] %14
w: Him- * mels- höhn _|so tönts im In- nern|fort, _|so tönts im In- nern|fort.|
w: Son- * nen- schein _|weht's still der Lüf- te|Hauch, _|weht's still der Lüf- te|Hauch.|
w: al- * le Zeit: _|ein rech- ter Se- gens-|spruch, _|ein rech- ter Se- gens-|spruch!|
V:2
 x6 | x4 C2 | B,>C D2 B,2 | C>B, C2 G2 | G>G _A2 A2 | G4 x C | D>D D2 x D | C>E _E2 x E | %8
 D>D (_E D2) D | D>C B,4 | CG FE D>F | E4- E x | C2 G,G, G,>G, | G,4 x2 |] %14
V:3
 z!p!"^dolce"!<(! G, C2!<)!!>(! D2!>)! | G,4!p! G,2 | G,>G, G,2 G,2 | G,>F, G,2!<(! G,2!<)! | %4
w: 1\-3. Be- hüt' dich|Gott! *|||
!f! C>C C2 F2 | !fermata!E4 z!pp! G, | B,>B, B,2 z B, | C>C C2 z C |"^cresc." C>B, A,2 A,2 | %9
w: |||||
 _A,>A, G,4 |!f! G,2 G,G, G,>B, |!>(! C4-!>)!!pp! C z | z!pp! G, F,E, D,>F, | !fermata!E,4 z2 |] %14
w: |||||
V:4
 z6 | z4 E,2 | D,>C, B,,2 F,2 | E,>D, E,2 G,E, | C,>C, F,2 _A,2 | C4 x C, | %6
w: ||||||
w: ||||||
w: ||||||
 ^G,,>[G,,^G,] [G,,G,]2 x [G,,G,] | [A,,A,]>[A,,A,] A,2 x A, | ^F,>F, F,2 F,2 | =F,>F, F,4 | %10
w: ||||
w: ||||
w: ||||
 E,2 G,G, G,>G, | (C2 G,) z C,2 | G,,3 G,, G,,>G,, | C,4 x2 |] %14
w: |* * so|tönts im In- nern|fort.|
w: |* * weht's|still der Lüf- te|Hauch.|
w: |* * ein|rech- ter Se- gens-|spruch!|

